svg/docx.svg

<?xml version="1.0" encoding="UTF-8"?>
<svg xmlns="http://www.w3.org/2000/svg" xmlns:xlink="http://www.w3.org/1999/xlink" width="32" height="32" viewBox="0 0 32 32">
<rect x="-3.2" y="-3.2" width="38.4" height="38.4" fill="rgb(100%, 100%, 100%)" fill-opacity="1"/>
<path fill-rule="nonzero" fill="rgb(0%, 0%, 0%)" fill-opacity="1" d="M 32 32 L 0 32 L 0 0 L 32 0 Z M 3.105469 28.800781 L 28.929688 28.800781 L 28.929688 3.199219 L 3.105469 3.199219 M 8.832031 8.640625 L 11.359375 18.144531 L 14.464844 8.640625 L 17.503906 8.640625 L 20.640625 18.144531 L 23.167969 8.640625 L 27.199219 8.640625 L 22.785156 23.359375 L 18.878906 23.359375 L 16 14.816406 L 13.121094 23.359375 L 9.214844 23.359375 L 4.800781 8.640625 Z M 8.832031 8.640625 "/>
</svg>

<svg role="img" viewBox="0 0 32 32" xmlns="http://www.w3.org/2000/svg"><path d="M-3.2-3.2h38.4v38.4H-3.2z" fill="rgb(100%, 100%, 100%)"/><path d="M32 32H0V0h32ZM3.105 28.8H28.93V3.2H3.105m5.727 5.44 2.527 9.505 3.106-9.504h3.039l3.137 9.504 2.527-9.504h4.031l-4.414 14.718H18.88L16 14.816l-2.879 8.543H9.215L4.8 8.641Zm0 0" fill="rgb(0%, 0%, 0%)"/></svg>
